!! 00000] TT[00
!! NN
!!!OTL: Da shi hua
!!!ARE: Shandong, Linqing
!! Ethnic Group: Hui
!! III, 366
!!!SCT: C0309
!!!YEM: Copyright 1995, estate of Helmut Schaffrath.
**kern
*ICvox
*Ivox
*M2/4
*k[]
*C:
{8cc
4cc
8dd
=1
4ee
4r
=2
8ee
4ee
8dd
=3
2cc}
=4
{8a
4a
8cc
=5
8dd
8b
8a
8g
=6
8e
8g
8a
8e
=7
4g
4r}
=8
{4a
4cc
=9
8a
8cc
8a
8g
=10
8e
8a
8f
8e
=11
8d
8e
8g
8a
=12
4e
4r}
=13
{8.dd
16cc#
8dd
8dd
=14
4a
4r
=15
8dd
8b
8dd
8dd
=16
4cc
4r}
=17
{8cc
4cc
8dd
=18
8ee
8dd
4ee
=19
8.cc
16dd
4ee}
=20
{8.ee
16ee
8ee
8dd
=21
4cc
8ee
8dd
=22
8dd
4cc
8a
=23
4cc
4r}
=24
{4a
4cc
=25
8a
8cc
8a
8g
=26
8e
8a
8f
8e
=27
8d
8e
8g
8a
=28
4e
4r}
=29
{4a
4cc
=30
8a
8cc
8a
8g
=31
8e
8a
8f
8e
=32
8d
8e
8g
8a
=33
4e
4r}
==
!!!AGN: Xiaodiao, Zha pu zho
!! prosaisch. Enthaelt viele Witze.
!!!ONB: ESAC (Essen Associative Code) Database: CHINA
!!!AMT: simple duple
!!!AIN: vox
!!!EED: Helmut Schaffrath
!!!EEV: 1.0
*-
